X:1
T:Title
%%score 1 { 2 | 3 }
L:1/8
Q:1/4=128
M:3/2
K:G
V:1 treble nm="Grand Piano, Soprano"
V:2 bass nm="Choir Pad, Sing Hallelujah"
V:3 bass 
V:1
 [DB]2 [DB]2 [DB]2 [DB]6 | [DG]2 [EG]2 [CE]2 [B,D]6 | [B,D]2 [DG]2 [GB]2 [Gd]6 | %3
w: By~John~Tibballs * * *|||
 [DB]2 [DA]2 [EG]2 [FA]6 | [GB]2 [GB]2 [GB]2 [GB]6 | [DG]2 [EG]2 [CE]2 [B,D]6 | %6
w: |||
 [B,D]2 [DG]2 [GB]2 [Gd]6 | [DB]2 [DA]2 [EG]2 [FA]2 G4 | [Gd]2 [Gd]2 [Gd]2 [Ge]2 [Gd]4- | %9
w: |||
 [Gd]2 [DB]2 [B,G]2 [DB]6 | [Gd]2 [Gd]2 [Gd]2 [Ge]2 [Gd]4- | [Gd]2 [GB]2 [DG]2 [FA]6 | %12
w: |||
 [GB]2 [GB]2 [GB]2 [GB]6 | [DG]2 [EG]2 [CE]2 [B,D]6 | [B,D]2 [DG]2 [GB]2 [Gd]6 | %15
w: |||
 [DB]2 [DA]2 [EG]2 [FA]2 G4- | G4 z4 z4 |] %17
w: ||
V:2
 G,2 G,2 G,2 G,6 | B,2 C2 G,2 G,6 | G,2 B,2 D2 B,6 | G,2 A,2 B,2[K:treble] D6 | D2 D2 D2 D6 | %5
 B,2 C2 G,2 G,6 | G,2 B,2 D2 B,6 | G,2 A,2 B,2 C2 B,4 | B,2 B,2 B,2 C2 B,4- | B,2 G,2 G,2 G,6 | %10
 B,2 B,2 B,2 C2 B,4- | B,2[K:treble] D2 B,2 D6 | D2 D2 D2 D6 | B,2 C2 G,2 G,6 | G,2 B,2 D2 B,6 | %15
 G,2 A,2 A,2 C2 B,4- | B,4 z4 z4 |] %17
V:3
 z12 | G,2 C,2 C,2 G,,6 | z2 G,2 G,2 G,6 | z2 F,2 E,2 D,6 | G,2 G,2 G,2 G,6 | G,2 C,2 .C,4 z4 | %6
 z2 G,2 G,2 G,6 | z2 F,2 E,2 D,2 G,,4 | G,2 G,2 G,2 G,2 G,4- | G,2 z2 z4 z4 | %10
 G,2 G,2 G,2 G,2 G,4- | G,2 G,2 G,2 D,6 | G,2 G,2 G,2 G,6 | G,2 C,2 C,2 G,,6 | z2 G,2 G,2 G,6 | %15
 z2 F,2 E,2 D,2 G,,4- | G,,4 z4 z4 |] %17

